src/public/img/icons/play.svg

<svg width="27" height="31" viewBox="0 0 27 31" fill="none" xmlns="http://www.w3.org/2000/svg">
    <path d="M1.22728 0C0.901782 0 0.589621 0.136086 0.359462 0.37832C0.129304 0.620555 2.34078e-06 0.949095 2.34078e-06 1.29167C-7.8026e-07 1.29335 -7.8026e-07 1.29503 2.34078e-06 1.29671V15.5V29.7033C-7.7994e-07 29.705 -7.7994e-07 29.7066 2.34078e-06 29.7083C2.34078e-06 30.0509 0.129304 30.3794 0.359462 30.6217C0.589621 30.8639 0.901782 31 1.22728 31C1.48275 30.9992 1.73162 30.9146 1.93919 30.7578L1.94159 30.7603L26.2833 16.6731C26.4969 16.5702 26.678 16.405 26.805 16.1971C26.9321 15.9892 26.9997 15.7472 27 15.5C27.0001 15.2459 26.929 14.9973 26.7955 14.7855C26.6621 14.5737 26.4722 14.408 26.2497 14.3092L1.94159 0.239665H1.93919C1.73133 0.0838152 1.48248 4.06414e-05 1.22728 0Z" fill="#ffffff" />
</svg>

<svg xmlns="http://www.w3.org/2000/svg" viewBox="0 0 27 31">
    <path fill="currentColor"
        d="M1.227 0C.902 0 .59.136.36.378A1.327 1.327 0 0 0 0 1.297V29.708c0 .343.13.671.36.914.23.242.542.378.867.378.256 0 .505-.085.712-.242l.003.002 24.341-14.087c.214-.103.395-.268.522-.476a1.341 1.341 0 0 0-.01-1.411 1.244 1.244 0 0 0-.545-.477L1.942.24h-.003A1.186 1.186 0 0 0 1.227 0Z" />
</svg>
